img/anthropic-wordmark-light 1.svg

<svg xmlns="http://www.w3.org/2000/svg" width="182" height="24" fill="none"><path fill="#FAD9C4" fill-rule="evenodd" d="M38.247 15.874 29.553 2.338H24.86v19.337h4.002V8.139l8.694 13.536h4.693V2.338h-4.003zm7.313-9.807h6.487v15.608h4.14V6.067h6.487v-3.73H45.56zm33.686 3.978h-9.109V2.338h-4.14v19.337h4.14v-7.9h9.109v7.9h4.14V2.338h-4.14zm13.39-3.978h5.108c2.043 0 3.12.746 3.12 2.155s-1.077 2.154-3.12 2.154h-5.107v-4.31zm12.37 2.155c0-3.647-2.679-5.884-7.068-5.884h-9.443v19.337h4.142v-7.57h4.61l4.142 7.57h4.583l-4.586-8.146c2.302-.885 3.62-2.75 3.62-5.307m12.686 9.91c-3.257 0-5.244-2.32-5.244-6.104 0-3.84 1.987-6.16 5.244-6.16 3.23 0 5.189 2.32 5.189 6.16 0 3.784-1.96 6.104-5.189 6.104m0-16.132c-5.575 0-9.522 4.144-9.522 10.028 0 5.828 3.947 9.972 9.522 9.972 5.547 0 9.466-4.144 9.466-9.972C127.158 6.144 123.24 2 117.692 2m22.59 8.929h-5.109V6.067h5.11c2.043 0 3.12.829 3.12 2.43 0 1.603-1.077 2.432-3.12 2.432zm.194-8.591h-9.445v19.337h4.142v-7.017h5.303c4.39 0 7.07-2.32 7.07-6.16s-2.68-6.16-7.07-6.16m35.108 12.839c-.718 1.878-2.153 2.956-4.113 2.956-3.257 0-5.244-2.32-5.244-6.105 0-3.84 1.987-6.16 5.244-6.16 1.96 0 3.395 1.077 4.113 2.955h4.388C178.896 4.68 175.667 2 171.472 2c-5.576 0-9.523 4.144-9.523 10.028 0 5.828 3.947 9.972 9.522 9.972 4.223 0 7.453-2.707 8.529-6.823zm-26.39-12.84 7.705 19.338h4.225L153.42 2.338h-4.225zM9.277 14.024l2.636-6.796 2.637 6.796zm.428-11.685L2 21.675h4.307l1.576-4.06h8.06l1.575 4.06h4.307L14.121 2.338z" clip-rule="evenodd"/></svg>

<svg width="182" height="24" viewBox="0 0 182 24" fill="none" xmlns="http://www.w3.org/2000/svg">
<path fill-rule="evenodd" clip-rule="evenodd" d="M38.247 15.874L29.553 2.338H24.86V21.675H28.862V8.139L37.556 21.675H42.249V2.338H38.246V15.874H38.247ZM45.56 6.067H52.047V21.675H56.187V6.067H62.674V2.337H45.56V6.067ZM79.246 10.045H70.137V2.338H65.997V21.675H70.137V13.775H79.246V21.675H83.386V2.338H79.246V10.045ZM92.636 6.067H97.744C99.787 6.067 100.864 6.813 100.864 8.222C100.864 9.63 99.787 10.376 97.744 10.376H92.637V6.066L92.636 6.067ZM105.006 8.222C105.006 4.575 102.327 2.338 97.938 2.338H88.495V21.675H92.637V14.105H97.247L101.389 21.675H105.972L101.386 13.529C103.688 12.644 105.006 10.779 105.006 8.222ZM117.692 18.132C114.435 18.132 112.448 15.812 112.448 12.028C112.448 8.188 114.435 5.868 117.692 5.868C120.922 5.868 122.881 8.188 122.881 12.028C122.881 15.812 120.921 18.132 117.692 18.132ZM117.692 2C112.117 2 108.17 6.144 108.17 12.028C108.17 17.856 112.117 22 117.692 22C123.239 22 127.158 17.856 127.158 12.028C127.158 6.144 123.24 2 117.692 2ZM140.282 10.929H135.173V6.067H140.283C142.326 6.067 143.403 6.896 143.403 8.497C143.403 10.1 142.326 10.929 140.283 10.929H140.282ZM140.476 2.338H131.031V21.675H135.173V14.658H140.476C144.866 14.658 147.546 12.338 147.546 8.498C147.546 4.658 144.866 2.338 140.476 2.338ZM175.584 15.177C174.866 17.055 173.431 18.133 171.471 18.133C168.214 18.133 166.227 15.813 166.227 12.028C166.227 8.188 168.214 5.868 171.471 5.868C173.431 5.868 174.866 6.945 175.584 8.823H179.972C178.896 4.68 175.667 2 171.472 2C165.896 2 161.949 6.144 161.949 12.028C161.949 17.856 165.896 22 171.471 22C175.694 22 178.924 19.293 180 15.177H175.584ZM149.194 2.337L156.899 21.675H161.124L153.42 2.338H149.195L149.194 2.337ZM9.277 14.024L11.913 7.228L14.55 14.024H9.276H9.277ZM9.705 2.339L2 21.675H6.307L7.883 17.615H15.943L17.518 21.675H21.825L14.121 2.338H9.704L9.705 2.339Z" fill="#FAD9C4"/>
</svg>
